SF_Symbols/slider.horizontal.below.rectangle.svg

<?xml version="1.0" encoding="UTF-8"?>
<svg xmlns="http://www.w3.org/2000/svg" xmlns:xlink="http://www.w3.org/1999/xlink" width="24" height="24" viewBox="0 0 24 24" version="1.1">
<g id="surface1">
<path style=" stroke:none;fill-rule:nonzero;fill:rgb(100%,100%,100%);fill-opacity:1;" d="M 4.300781 16.171875 L 19.6875 16.171875 C 20.828125 16.171875 21.695312 15.886719 22.289062 15.316406 C 22.882812 14.738281 23.179688 13.878906 23.179688 12.738281 L 23.179688 4.828125 C 23.179688 3.6875 22.882812 2.832031 22.289062 2.261719 C 21.695312 1.683594 20.828125 1.394531 19.6875 1.394531 L 4.300781 1.394531 C 3.222656 1.394531 2.371094 1.683594 1.746094 2.261719 C 1.128906 2.832031 0.820312 3.6875 0.820312 4.828125 L 0.820312 12.738281 C 0.820312 13.878906 1.117188 14.738281 1.710938 15.316406 C 2.304688 15.886719 3.167969 16.171875 4.300781 16.171875 Z M 4.277344 14.402344 C 3.761719 14.402344 3.371094 14.269531 3.105469 14.003906 C 2.839844 13.738281 2.707031 13.347656 2.707031 12.832031 L 2.707031 4.734375 C 2.707031 4.21875 2.839844 3.828125 3.105469 3.5625 C 3.371094 3.296875 3.761719 3.164062 4.277344 3.164062 L 19.710938 3.164062 C 20.234375 3.164062 20.628906 3.296875 20.894531 3.5625 C 21.160156 3.828125 21.292969 4.21875 21.292969 4.734375 L 21.292969 12.832031 C 21.292969 13.347656 21.160156 13.738281 20.894531 14.003906 C 20.628906 14.269531 20.234375 14.402344 19.710938 14.402344 Z M 16.464844 23.449219 C 16.980469 23.449219 17.449219 23.320312 17.871094 23.0625 C 18.300781 22.8125 18.640625 22.472656 18.890625 22.042969 C 19.148438 21.621094 19.277344 21.152344 19.277344 20.636719 C 19.277344 20.121094 19.148438 19.648438 18.890625 19.21875 C 18.640625 18.789062 18.300781 18.449219 17.871094 18.199219 C 17.449219 17.941406 16.980469 17.8125 16.464844 17.8125 C 15.941406 17.8125 15.464844 17.941406 15.035156 18.199219 C 14.613281 18.449219 14.273438 18.789062 14.015625 19.21875 C 13.765625 19.648438 13.640625 20.121094 13.640625 20.636719 C 13.640625 21.152344 13.765625 21.621094 14.015625 22.042969 C 14.273438 22.472656 14.613281 22.8125 15.035156 23.0625 C 15.464844 23.320312 15.941406 23.449219 16.464844 23.449219 Z M 16.464844 22.007812 C 16.082031 22.007812 15.757812 21.871094 15.492188 21.597656 C 15.226562 21.332031 15.09375 21.007812 15.09375 20.625 C 15.09375 20.242188 15.226562 19.917969 15.492188 19.652344 C 15.757812 19.386719 16.082031 19.253906 16.464844 19.253906 C 16.847656 19.253906 17.171875 19.386719 17.4375 19.652344 C 17.703125 19.917969 17.835938 20.242188 17.835938 20.625 C 17.835938 21.007812 17.703125 21.332031 17.4375 21.597656 C 17.171875 21.871094 16.847656 22.007812 16.464844 22.007812 Z M 14.601562 19.6875 L 1.757812 19.6875 C 1.5 19.6875 1.277344 19.78125 1.089844 19.96875 C 0.910156 20.148438 0.820312 20.371094 0.820312 20.636719 C 0.820312 20.894531 0.910156 21.113281 1.089844 21.292969 C 1.277344 21.480469 1.5 21.574219 1.757812 21.574219 L 14.601562 21.574219 Z M 22.277344 19.6875 L 18.492188 19.6875 L 18.492188 21.574219 L 22.277344 21.574219 C 22.519531 21.574219 22.730469 21.480469 22.910156 21.292969 C 23.089844 21.113281 23.179688 20.894531 23.179688 20.636719 C 23.179688 20.371094 23.089844 20.148438 22.910156 19.96875 C 22.730469 19.78125 22.519531 19.6875 22.277344 19.6875 Z M 22.277344 19.6875 "/>
</g>
</svg>

<svg xmlns="http://www.w3.org/2000/svg" width="24" height="24"><path style="stroke:none;fill-rule:nonzero;fill:#fff;fill-opacity:1" d="M4.3 16.172h15.387c1.141 0 2.008-.285 2.602-.856.594-.578.89-1.437.89-2.578v-7.91c0-1.14-.296-1.996-.89-2.566-.594-.578-1.46-.867-2.602-.867H4.302c-1.078 0-1.93.289-2.555.867C1.13 2.832.82 3.687.82 4.828v7.91c0 1.14.297 2 .89 2.578.595.57 1.458.856 2.59.856Zm-.023-1.77c-.515 0-.906-.132-1.172-.398-.265-.266-.398-.656-.398-1.172V4.734c0-.515.133-.906.398-1.171.266-.266.657-.399 1.172-.399h15.434c.523 0 .918.133 1.184.398.265.266.398.657.398 1.172v8.098c0 .516-.133.906-.398 1.172-.266.266-.66.398-1.184.398Zm12.188 9.047c.515 0 .984-.129 1.406-.387.43-.25.77-.59 1.02-1.019.257-.422.386-.89.386-1.406 0-.516-.129-.989-.386-1.418-.25-.43-.59-.77-1.02-1.02a2.657 2.657 0 0 0-1.406-.387c-.524 0-1 .13-1.43.387-.422.25-.762.59-1.02 1.02-.25.43-.374.902-.374 1.418 0 .515.125.984.375 1.406.257.43.597.77 1.02 1.02.429.257.905.386 1.429.386Zm0-1.441c-.383 0-.707-.137-.973-.41a1.314 1.314 0 0 1-.398-.973c0-.383.133-.707.398-.973.266-.265.59-.398.973-.398s.707.133.973.398c.265.266.398.59.398.973s-.133.707-.398.973c-.266.273-.59.41-.973.41Zm-1.863-2.32H1.758a.906.906 0 0 0-.668.28.895.895 0 0 0-.27.669c0 .258.09.476.27.656.187.187.41.281.668.281h12.844Zm7.675 0h-3.785v1.886h3.785a.846.846 0 0 0 .633-.281c.18-.18.27-.398.27-.656a.895.895 0 0 0-.27-.668.846.846 0 0 0-.633-.282Zm0 0"/></svg>
